X: 44
M: C
L: 1/4
K: D
ef gf | ed cd | ef gf | eA Ad |
cd e/d/c/B/ | cA Ad | cd e/d/c/B/ | A2 e2 |\
ed ef | g2 f2 | ed ec | d3 :|


